images/class_icons/artificer.svg

<svg height="400" viewBox="0 0 400 400" width="400" xmlns="http://www.w3.org/2000/svg"><path d="m310.733.194c-26.095 3.103-46.589 15.454-60.443 36.426-12.805 19.384-16.307 45.13-9.114 66.993 1.688 5.128 3.773 2.387-19.727 25.922l-20.402 20.431 8.671 8.733c4.769 4.803 15.102 15.25 22.964 23.216l14.294 14.483 20.035-19.99c11.02-10.995 20.42-20.277 20.89-20.627 1.189-.886 2.197-.807 6.89.539 28.354 8.135 57.212.807 78.497-19.933 17.605-17.154 26.461-43.484 23.019-68.437-.407-2.945-3.523-16.265-3.91-16.715-.064-.073-12.605 12.351-27.87 27.61-24.439 24.43-27.859 27.743-28.639 27.743-.792 0-41.186-39.803-45.371-44.708l-.884-1.036 27.77-27.979c15.274-15.389 27.683-28.067 27.575-28.173-.778-.767-12.983-3.528-18.753-4.242-3.269-.405-12.901-.564-15.492-.256m-253.118 23.838c-.311.18-5.873 5.626-12.361 12.103-12.662 12.638-12.458 12.383-11.459 14.292 1.351 2.578 26.877 39.177 28.067 40.241.778.695 9.194 6.583 18.703 13.084 28.953 19.796 24.608 16.13 52.679 44.457 12.414 12.526 31.451 31.636 42.305 42.465 23.023 22.969 50.329 50.909 50.909 52.088.568 1.158.297 1.569-4.469 6.782l-4.066 4.447 1.401 1.036c.771.57 25.502 25.158 54.958 54.639 61.752 61.805 56.017 56.619 65.525 59.256 5.856 1.624 8.048 1.775 11.503.795 1.458-.413 3.677-.959 4.932-1.213 6.635-1.343 14.159-7.104 18.563-14.214 5.895-9.519 5.282-23.765-1.457-33.834-.832-1.242-110.625-111.431-111.023-111.422-.082.002-2.147 2.325-4.59 5.163s-4.508 5.133-4.589 5.099c-.082-.034-27.329-27.305-60.551-60.604l-60.402-60.542-15.838-23.06c-13.357-19.45-16.069-23.233-17.317-24.161-3.695-2.746-38.535-26.465-39.412-26.832-1.167-.487-1.278-.491-2.011-.065m80.356 189.014c-11.643 11.654-21.741 21.529-22.44 21.946-1.497.891-2.197.839-6.575-.491-10.354-3.145-23.372-4.124-33.752-2.537-7.064 1.079-8.268 1.839-12.679 8.005-1.398 1.955-4.291 5.886-6.429 8.736-5.465 7.285-5.231 6.477-2.952 10.202 2.236 3.653 2.941 5.871 2.725 8.57-.576 7.213-6.152 13.334-13.53 14.854-3.982.82-1.418-4.046-20.58 39.061-8.903 20.029-16.842 37.669-17.641 39.198-.799 1.53-1.453 3.129-1.452 3.553.001 1.049 4.841 20.548 5.542 22.329l.56 1.424 37.879-43.688 37.88-43.687 5.257 5.251c2.891 2.888 5.257 5.344 5.257 5.458 0 .113-16.788 19.606-37.306 43.317-20.518 23.712-37.306 43.222-37.306 43.356 0 .556 13.977 1.866 20.43 1.914l4.589.035 4.293-2.692c50.858-31.885 68.4-42.967 69.118-43.664.826-.802.882-1.015 1.071-4.04.749-11.952 11.834-18.793 21.957-13.551 3.281 1.699 2.363 2.304 13.603-8.962 11.64-11.666 10.476-9.543 10.232-18.677-.172-6.393-.348-7.518-2.825-17.978-.858-3.627-1.413-6.598-1.326-7.106.115-.675 4.244-4.952 18.28-18.933 9.973-9.934 19.843-19.901 21.934-22.151l3.801-4.09-23.073-23.075c-12.691-12.691-23.141-23.075-23.224-23.075-.082 0-9.675 9.535-21.318 21.188m175.181 66.377c27.439 27.479 50.101 50.362 50.36 50.851 2.051 3.87-2.276 8.328-6.172 6.359-.815-.412-3.551-2.907-7.259-6.619-46.079-46.129-92.785-93.157-93.082-93.723-.322-.613 5.165-6.681 6.165-6.818.054-.007 22.549 22.47 49.988 49.95m-62.881-26.795c10.665 10.097 93.808 93.319 94.971 95.061.678 1.016 1.168 2.103 1.168 2.594 0 2.678-3.553 5.504-6.133 4.879-.573-.139-16.276-15.645-51.525-50.881l-50.701-50.682 1.996-2.036c2.22-2.264 4.089-3.747 4.724-3.747.23 0 2.705 2.165 5.5 4.812" fill-rule="evenodd"/></svg>

<svg id="svg" xmlns="http://www.w3.org/2000/svg" xmlns:xlink="http://www.w3.org/1999/xlink" width="400" height="400" viewBox="0, 0, 400,400"><g id="svgg"><path id="path0" d="M310.733 0.194 C 284.638 3.297,264.144 15.648,250.290 36.620 C 237.485 56.004,233.983 81.750,241.176 103.613 C 242.864 108.741,244.949 106.000,221.449 129.535 L 201.047 149.966 209.718 158.699 C 214.487 163.502,224.820 173.949,232.682 181.915 L 246.976 196.398 267.011 176.408 C 278.031 165.413,287.431 156.131,287.901 155.781 C 289.090 154.895,290.098 154.974,294.791 156.320 C 323.145 164.455,352.003 157.127,373.288 136.387 C 390.893 119.233,399.749 92.903,396.307 67.950 C 395.900 65.005,392.784 51.685,392.397 51.235 C 392.333 51.162,379.792 63.586,364.527 78.845 C 340.088 103.275,336.668 106.588,335.888 106.588 C 335.096 106.588,294.702 66.785,290.517 61.880 L 289.633 60.844 317.403 32.865 C 332.677 17.476,345.086 4.798,344.978 4.692 C 344.200 3.925,331.995 1.164,326.225 0.450 C 322.956 0.045,313.324 -0.114,310.733 0.194 M57.615 24.032 C 57.304 24.212,51.742 29.658,45.254 36.135 C 32.592 48.773,32.796 48.518,33.795 50.427 C 35.146 53.005,60.672 89.604,61.862 90.668 C 62.640 91.363,71.056 97.251,80.565 103.752 C 109.518 123.548,105.173 119.882,133.244 148.209 C 145.658 160.735,164.695 179.845,175.549 190.674 C 198.572 213.643,225.878 241.583,226.458 242.762 C 227.026 243.920,226.755 244.331,221.989 249.544 L 217.923 253.991 219.324 255.027 C 220.095 255.597,244.826 280.185,274.282 309.666 C 336.034 371.471,330.299 366.285,339.807 368.922 C 345.663 370.546,347.855 370.697,351.310 369.717 C 352.768 369.304,354.987 368.758,356.242 368.504 C 362.877 367.161,370.401 361.400,374.805 354.290 C 380.700 344.771,380.087 330.525,373.348 320.456 C 372.516 319.214,262.723 209.025,262.325 209.034 C 262.243 209.036,260.178 211.359,257.735 214.197 C 255.292 217.035,253.227 219.330,253.146 219.296 C 253.064 219.262,225.817 191.991,192.595 158.692 L 132.193 98.150 116.355 75.090 C 102.998 55.640,100.286 51.857,99.038 50.929 C 95.343 48.183,60.503 24.464,59.626 24.097 C 58.459 23.610,58.348 23.606,57.615 24.032 M137.971 213.046 C 126.328 224.700,116.230 234.575,115.531 234.992 C 114.034 235.883,113.334 235.831,108.956 234.501 C 98.602 231.356,85.584 230.377,75.204 231.964 C 68.140 233.043,66.936 233.803,62.525 239.969 C 61.127 241.924,58.234 245.855,56.096 248.705 C 50.631 255.990,50.865 255.182,53.144 258.907 C 55.380 262.560,56.085 264.778,55.869 267.477 C 55.293 274.690,49.717 280.811,42.339 282.331 C 38.357 283.151,40.921 278.285,21.759 321.392 C 12.856 341.421,4.917 359.061,4.118 360.590 C 3.319 362.120,2.665 363.719,2.666 364.143 C 2.667 365.192,7.507 384.691,8.208 386.472 L 8.768 387.896 46.647 344.208 L 84.527 300.521 89.784 305.772 C 92.675 308.660,95.041 311.116,95.041 311.230 C 95.041 311.343,78.253 330.836,57.735 354.547 C 37.217 378.259,20.429 397.769,20.429 397.903 C 20.429 398.459,34.406 399.769,40.859 399.817 L 45.448 399.852 49.741 397.160 C 100.599 365.275,118.141 354.193,118.859 353.496 C 119.685 352.694,119.741 352.481,119.930 349.456 C 120.679 337.504,131.764 330.663,141.887 335.905 C 145.168 337.604,144.250 338.209,155.490 326.943 C 167.130 315.277,165.966 317.400,165.722 308.266 C 165.550 301.873,165.374 300.748,162.897 290.288 C 162.039 286.661,161.484 283.690,161.571 283.182 C 161.686 282.507,165.815 278.230,179.851 264.249 C 189.824 254.315,199.694 244.348,201.785 242.098 L 205.586 238.008 182.513 214.933 C 169.822 202.242,159.372 191.858,159.289 191.858 C 159.207 191.858,149.614 201.393,137.971 213.046 M313.152 279.423 C 340.591 306.902,363.253 329.785,363.512 330.274 C 365.563 334.144,361.236 338.602,357.340 336.633 C 356.525 336.221,353.789 333.726,350.081 330.014 C 304.002 283.885,257.296 236.857,256.999 236.291 C 256.677 235.678,262.164 229.610,263.164 229.473 C 263.218 229.466,285.713 251.943,313.152 279.423 M250.271 252.628 C 260.936 262.725,344.079 345.947,345.242 347.689 C 345.920 348.705,346.410 349.792,346.410 350.283 C 346.410 352.961,342.857 355.787,340.277 355.162 C 339.704 355.023,324.001 339.517,288.752 304.281 L 238.051 253.599 240.047 251.563 C 242.267 249.299,244.136 247.816,244.771 247.816 C 245.001 247.816,247.476 249.981,250.271 252.628 " stroke="none" fill="#000000" fill-rule="evenodd"></path></g></svg>
